X:1
T:Title
%%score { ( 1 3 4 ) | ( 2 5 ) }
L:1/8
M:6/8
K:Bb
V:1 treble nm="Grand Piano"
V:3 treble 
V:4 treble 
V:2 bass 
V:5 bass 
V:1
 z3 z2[Q:1/4=87] [DF] | [DB][DA][EG] [DF][CE]D | F3- F2 F | ABc AGF |[M:5/8] [Fd]-[Fd]- [Fd]3 | %5
[M:1/8] [Fd] |[M:3/4] [Fd][=E_d] [_Ec] [DB]2 [DB] | [DB][EA] [F_A] G2 G | %8
[M:27/32] z/4 z/4 z/4 z/4 z/4 z/4 z/4 z/4 z/4 z/4 z/4 z/4 z/ d/4-d/4-d/4-d/4-d/4-d/4-d/-<d/ z/4 z/ | %9
[M:5/8] z5 |] %10
V:2
 z3 z2 [B,,F,] | [B,,F,][B,,F,][B,,B,] [B,,B,][B,,F,][B,,F,B,] | [F,A,E]3- [F,A,E]2 [F,A,E] | %3
 [F,CE][F,B,E][F,A,E] [F,CE][F,B,E][F,A,E] |[M:5/8] [B,,B,]-[B,,B,]- [B,,B,]3 |[M:1/8] [B,,F,] | %6
[M:3/4] [B,,F,][B,,G,] [B,,A,] [B,,B,]2 [B,,F,] | [B,,F,][B,,F,] [D,B,] [E,B,E]2 [E,B,E] | %8
[M:27/32] [=E,G,_D]/-<[E,G,D]/[E,A,D]/-<[E,A,D]/[E,B,D]/-<[E,B,D]/[F,B,=D]/[B,F]/4-[B,F]/4-[B,F]/4-[B,F]/4-[B,F]/-<[B,F]/-[A,-B,E-F]/[A,E]3/4- | %9
[M:5/8] [B,,-F,-A,E]/>[B,,F,]/-[B,,F,]- [B,,F,]3 |] %10
V:3
 x6 | x6 | x6 | x6 |[M:5/8] x5 |[M:1/8] x |[M:3/4] x6 | x6 | %8
[M:27/32] z/4 z/4 z/4 z/4 z/4 z/4 z/4 z/4 z/4 z/4 z/4 z/4 z/4 z/4 z/4 z/4 z/4 z/4 z/4 z/4 z/ c/4-c/-<c/- | %9
[M:5/8] c3/4 z/4 z z z2 |] %10
V:4
 x6 | x6 | x6 | x6 |[M:5/8] x5 |[M:1/8] x |[M:3/4] x6 | x6 | %8
[M:27/32] B/-<B/A/-<A/G/-<G/F/ z/4 z/4 z/4 z/4 z/4 z/4 z/4 z/4 z/4 z/4 z/4 z/ | %9
[M:5/8] [DB]-[DB]- [DB]3 |] %10
V:5
 x6 | x6 | x6 | x6 |[M:5/8] x5 |[M:1/8] x |[M:3/4] x6 | x6 | %8
[M:27/32] z/4 z/4 z/4 z/4 z/4 z/4 z/4 z/4 z/4 z/4 z/4 z/4 z/ F,/4-F,/4-F,/4-F,/4-F,/-<F,/F,/4-F,/-<F,/ | %9
[M:5/8] x5 |] %10

